svgs/light/quote-right.svg

<svg xmlns="http://www.w3.org/2000/svg" viewBox="0 0 448 512"><!--! Font Awesome Pro 6.6.0 by @fontawesome - https://fontawesome.com License - https://fontawesome.com/license (Commercial License) Copyright 2024 Fonticons, Inc. --><path d="M448 304c0 61.9-50.1 112-112 112l-32 0c-8.8 0-16-7.2-16-16s7.2-16 16-16l32 0c44.2 0 80-35.8 80-80l0-24.6c-9.4 5.4-20.3 8.6-32 8.6l-64 0c-35.3 0-64-28.7-64-64l0-64c0-35.3 28.7-64 64-64l64 0c35.3 0 64 28.7 64 64l0 32 0 32 0 80zM416 192l0-32c0-17.7-14.3-32-32-32l-64 0c-17.7 0-32 14.3-32 32l0 64c0 17.7 14.3 32 32 32l64 0c17.7 0 32-14.3 32-32l0-32zM192 304c0 61.9-50.1 112-112 112l-32 0c-8.8 0-16-7.2-16-16s7.2-16 16-16l32 0c44.2 0 80-35.8 80-80l0-24.6c-9.4 5.4-20.3 8.6-32 8.6l-64 0c-35.3 0-64-28.7-64-64l0-64c0-35.3 28.7-64 64-64l64 0c35.3 0 64 28.7 64 64l0 32 0 32 0 80zM160 192l0-32c0-17.7-14.3-32-32-32l-64 0c-17.7 0-32 14.3-32 32l0 64c0 17.7 14.3 32 32 32l64 0c17.7 0 32-14.3 32-32l0-32z"/></svg>

<svg xmlns="http://www.w3.org/2000/svg" viewBox="0 0 448 512"><!--! Font Awesome Pro 6.4.2 by @fontawesome - https://fontawesome.com License - https://fontawesome.com/license (Commercial License) Copyright 2023 Fonticons, Inc. --><path d="M448 304c0 61.9-50.1 112-112 112H304c-8.8 0-16-7.2-16-16s7.2-16 16-16h32c44.2 0 80-35.8 80-80V279.4c-9.4 5.4-20.3 8.6-32 8.6H320c-35.3 0-64-28.7-64-64V160c0-35.3 28.7-64 64-64h64c35.3 0 64 28.7 64 64v32 32 80zM416 192V160c0-17.7-14.3-32-32-32H320c-17.7 0-32 14.3-32 32v64c0 17.7 14.3 32 32 32h64c17.7 0 32-14.3 32-32V192zM192 304c0 61.9-50.1 112-112 112H48c-8.8 0-16-7.2-16-16s7.2-16 16-16H80c44.2 0 80-35.8 80-80V279.4c-9.4 5.4-20.3 8.6-32 8.6H64c-35.3 0-64-28.7-64-64V160c0-35.3 28.7-64 64-64h64c35.3 0 64 28.7 64 64v32 32 80zM160 192V160c0-17.7-14.3-32-32-32H64c-17.7 0-32 14.3-32 32v64c0 17.7 14.3 32 32 32h64c17.7 0 32-14.3 32-32V192z"/></svg>
